svgs/inshorts.svg

<svg xmlns="http://www.w3.org/2000/svg" viewBox="0 0 192 192"><path d="M158.311 141.122a17.198 17.198 0 0 0-12.155 5.034 17.194 17.194 0 0 0 0 24.309 17.191 17.191 0 0 0 24.309-24.309 17.194 17.194 0 0 0-12.154-5.034Zm-124.622 0a17.194 17.194 0 0 0-12.154 5.034 17.191 17.191 0 0 0 24.309 24.309 17.194 17.194 0 0 0 0-24.309 17.198 17.198 0 0 0-12.155-5.034Zm62.311 0a17.198 17.198 0 0 0-12.155 5.034 17.194 17.194 0 0 0 0 24.309A17.195 17.195 0 0 0 96 175.5c4.557 0 8.932-1.812 12.155-5.035a17.194 17.194 0 0 0 0-24.309A17.198 17.198 0 0 0 96 141.122ZM158.311 16.5a17.195 17.195 0 0 0-12.155 5.035 17.194 17.194 0 0 0 0 24.309 17.194 17.194 0 0 0 24.309 0A17.191 17.191 0 0 0 158.311 16.5ZM96 16.5a17.198 17.198 0 0 1 12.152 5.036 17.197 17.197 0 0 1 5.033 12.153c0 4.557-1.812 8.931-5.033 12.153A17.193 17.193 0 0 1 96 50.878H33.689a17.193 17.193 0 0 1-12.152-5.036 17.195 17.195 0 0 1-5.033-12.153c0-4.556 1.812-8.931 5.033-12.153A17.198 17.198 0 0 1 33.689 16.5Zm62.311 59.209a17.195 17.195 0 0 0-12.155 5.035 17.194 17.194 0 0 0 0 24.309 17.194 17.194 0 0 0 24.309 0 17.191 17.191 0 0 0-12.154-29.344Zm-62.311 0a17.195 17.195 0 0 0-12.155 5.035 17.194 17.194 0 0 0 0 24.309A17.198 17.198 0 0 0 96 110.087c4.557 0 8.932-1.812 12.155-5.034a17.194 17.194 0 0 0 0-24.309A17.195 17.195 0 0 0 96 75.709Z" fill="none" stroke="#000" stroke-width="12" stroke-linecap="round" stroke-linejoin="round"/></svg>

<svg
    xmlns="http://www.w3.org/2000/svg"
    viewBox="0 0 192 192"
    id="vector">
    <path
        id="path"
        d="M 158.311 141.122 C 153.754 141.122 149.379 142.934 146.156 146.156 C 142.934 149.379 141.122 153.754 141.122 158.311 C 141.122 162.868 142.934 167.243 146.156 170.465 C 149.379 173.688 153.754 175.5 158.311 175.5 C 162.868 175.5 167.243 173.688 170.465 170.465 C 173.688 167.243 175.5 162.868 175.5 158.311 C 175.5 153.754 173.688 149.379 170.465 146.156 C 167.243 142.934 162.868 141.122 158.311 141.122 Z M 33.689 141.122 C 29.132 141.122 24.757 142.934 21.535 146.156 C 18.312 149.379 16.5 153.754 16.5 158.311 C 16.5 162.868 18.312 167.243 21.535 170.465 C 24.757 173.688 29.132 175.5 33.689 175.5 C 38.246 175.5 42.621 173.688 45.844 170.465 C 49.066 167.243 50.878 162.868 50.878 158.311 C 50.878 153.754 49.066 149.379 45.844 146.156 C 42.621 142.934 38.246 141.122 33.689 141.122 Z M 96 141.122 C 91.443 141.122 87.068 142.934 83.845 146.156 C 80.623 149.379 78.811 153.754 78.811 158.311 C 78.811 162.868 80.623 167.243 83.845 170.465 C 87.068 173.688 91.443 175.5 96 175.5 C 100.557 175.5 104.932 173.688 108.155 170.465 C 111.377 167.243 113.189 162.868 113.189 158.311 C 113.189 153.754 111.377 149.379 108.155 146.156 C 104.932 142.934 100.557 141.122 96 141.122 Z M 158.311 16.5 C 153.754 16.5 149.379 18.312 146.156 21.535 C 142.934 24.757 141.122 29.132 141.122 33.689 C 141.122 38.246 142.934 42.621 146.156 45.844 C 149.379 49.066 153.754 50.878 158.311 50.878 C 162.868 50.878 167.243 49.066 170.465 45.844 C 173.688 42.621 175.5 38.246 175.5 33.689 C 175.5 29.132 173.688 24.757 170.465 21.535 C 167.243 18.312 162.868 16.5 158.311 16.5 Z M 96 16.5 C 100.556 16.501 104.93 18.314 108.152 21.536 C 111.373 24.758 113.185 29.133 113.185 33.689 C 113.185 38.246 111.373 42.62 108.152 45.842 C 104.93 49.065 100.556 50.877 96 50.878 L 33.689 50.878 C 29.133 50.877 24.759 49.065 21.537 45.842 C 18.316 42.62 16.504 38.246 16.504 33.689 C 16.504 29.133 18.316 24.758 21.537 21.536 C 24.759 18.314 29.133 16.501 33.689 16.5 Z M 158.311 75.709 C 153.754 75.709 149.379 77.521 146.156 80.744 C 142.934 83.966 141.122 88.341 141.122 92.898 C 141.122 97.455 142.934 101.83 146.156 105.053 C 149.379 108.275 153.754 110.087 158.311 110.087 C 162.868 110.087 167.243 108.275 170.465 105.053 C 173.688 101.83 175.5 97.455 175.5 92.898 C 175.5 88.341 173.688 83.966 170.465 80.744 C 167.243 77.521 162.868 75.709 158.311 75.709 Z M 96 75.709 C 91.443 75.709 87.068 77.521 83.845 80.744 C 80.623 83.966 78.811 88.341 78.811 92.898 C 78.811 97.455 80.623 101.83 83.845 105.053 C 87.068 108.275 91.443 110.087 96 110.087 C 100.557 110.087 104.932 108.275 108.155 105.053 C 111.377 101.83 113.189 97.455 113.189 92.898 C 113.189 88.341 111.377 83.966 108.155 80.744 C 104.932 77.521 100.557 75.709 96 75.709 Z"
        fill="none"
        stroke="#000000"
        stroke-width="12"
        stroke-linecap="round"
        stroke-linejoin="round"/>
</svg>
